X:1
T:The Well-Tempered Clavier Book I - XXIV
T:BWV 869    (A = 415 Hz)
T:J. S. Bach
%%score { ( 1 2 4 ) | ( 3 5 6 ) }
L:1/8
Q:1/4=112
M:4/4
K:D
V:1 treble nm="Harp"
V:2 treble 
V:4 treble 
V:3 bass 
V:5 bass 
V:6 bass 
V:1
"^Moderato""^Praeludium" z4 c2 f2- | f2 e2 d4- | d2 cB ^A2 Bc | F2 B4 A2 | G4 F4 | B2 e2 A2 d2- | %6
 d2 c2 d/c/B/A/ d2- | d2 c2 B2 e2- | e2 d2 c2 f2- | f2 ^e2 f2 ^g2 | c2 f4 ^e2 | f2 z2 e2 a2- | %12
 a2 g2 f2 b2- | b2 ^a2 b2- b=a/g/ | f3 g d2 c2 | B g2 f2 b/^a/ b2 | %16
 ^abed d/4c/4d/4c/4d/4c/4d/4c/4 d/4c/4d/4c/4d/4c/4d/4c/4 | z4 c2 f2- | f2 e2 d4- | d2 cB ^A2 Bc | %20
 F2 B4 A2 | G4 F4 | B2 e2 A2 d2- | d2 c2 d/c/B/A/ d2- | d2 c2 B2 e2- | e2 d2 c2 f2- | %26
 f2 ^e2 f2 ^g2 | c2 f4 ^e2 | f2 z2 e2 a2- | a2 g2 f2 b2- | b2 ^a2 b2- b=a/g/ | f3 g d2 c2 | %32
 B g2 f2 b/^a/ b2 | ^abed d/4c/4d/4c/4d/4c/4d/4c/4 d/4c/4d/4c/4d/4c/4d/4c/4 | a4- afba | %35
 g2 f2 g4- | geag f2 e2 | f4- ff^ga | b2 a4 gf | ^ecf=e d4- | d2 cB AB c2- | c2 B4 A2- | %42
 A2 ^GF ^EdcB | A2 ^G2 F2 z2 | ^d2 ef B=c'ba | g2 f2 e2 _b2- | b2 ag fcde | A d2 c F B2 A | %48
 D G2 F ^G2 ^AB | c4- cBcd | e4- edef | g6 f2- | fagf g2 ^g2- | gba^g a2 ^a2- | a=c'b^a b3 =a | %55
 g4 f4 | e4 d4- | d2 cB ^Agfe | d2 c2 B4- | B B2 ^A e4- | e e2 ^d g4- | g f2 ^e b=e/^d/ eg | %62
 d2 c2 ^de^AB | G4 F4 | a4- afba | g2 f2 g4- | geag f2 e2 | f4- ff^ga | b2 a4 gf | ^ecf=e d4- | %70
 d2 cB AB c2- | c2 B4 A2- | A2 ^GF ^EdcB | A2 ^G2 F2 z2 | ^d2 ef B=c'ba | g2 f2 e2 _b2- | %76
 b2 ag fcde | A d2 c F B2 A | D G2 F ^G2 ^AB | c4- cBcd | e4- edef | g6 f2- | fagf g2 ^g2- | %83
 gba^g a2 ^a2- | a=c'b^a b3 =a | g4 f4 | e4 d4- | d2 cB ^Agfe | d2 c2 B4- | B B2 ^A e4- | %90
 e e2 ^d g4- | g f2 ^e b=e/^d/ eg | d2 c2 ^de^AB | G4 F4 | z8 |[M:4/4]"^Fuga" z8 | E^D=cB F^Ed^c | %97
 ^BcAF A/4^G/4A/4G/4A/4G/4A/4G/4 A/4G/4A/4G/4A/4G/4A/4G/4 | F>^E F/^G/A/c/ B/G/A/^B/ f2 | %99
 e2 d2 c2 B2- | B^A B2- B/c/d/e/ f/g/B/A/ | d4- d=cB^d | e4- edc^e | f>g f/e/d/B/ c/e/d/B/ Ff- | %104
 f>g f/e/^d/c/ B/c/4=d/4c- c/B/A/d/ | ^G2 A2 B4- | B2 A2 G4 | z BAF dBe^d | A^G=fe B^Ag^f | %109
 ^efdB c4- | c/c/d/e/ f/g/B/^A/ B4- | B/^E/F/^G/ A/B/c/F/ d/e/f- fe/d/ | %112
 c/d/e- ed/c/ B/c/d- dc/B/ | A2 z f- fe/d/ c/d/e- | ed/c/ B/c/d- dc/B/ ^A/B/c- | %115
 cB/^A/ B2- B/A/B/d/ c2 | B2 A2 ^G2 F2- | F^E F2 ^G4 | F2 f2- fe^df | g4- gf^e^g | %120
 cd/e/ d/e/f- fe/d/ c/d/e- | ed/c/ B/c/d- dc/B/ ^A/B/c- | cB z b- ba/g/ f/g/a- | %123
 ag/f/ e/f/g- gf/e/ ^d/e/f- | fe/^d/ e/f/g/b/ ag f2 | e2 d2 ^c2 B/c/d/e/ | %126
 d<c B2- B/c/d/e/ f/g/B/^A/ | d4 c3 ^d | ^e2 z f- f/=e/f/a/ ^g2 | z fdB gfb^a | %130
 e^d g2- g/f/^g/^a/ b/=g/f/^e/ | f2 =f2- f/e/^f/^g/ a/b/e/^d/ | %132
 e/F/G/A/ B/c/d/f/ e/c/d/f/ g/e/f/^a/ | b2 a2 ^g2 f2- | f/^e/f/e/ f2- f/A/B/c/ d/=e/F/^E/ | %135
 FfdB gfb^a | e^d z e- e/d/e/g/ f2 | e/d/c/B/ A/B/c/e/ d/B/c/e/ f/d/e/^g/ | %138
 a/g/f/e/ d/c/B/A/ G/E/F/A/ B/G/A/c/ | d/e/d/e/ f/g/a/f/ d/=f/e/d/ =c/B/c/d/ | %140
 =c<B A2- Ad/e/ f/g/A/^G/ | e/f/G/F/ d/e/F/E/ c/B/c/d/ e/f/g/e/ | a4 g2 =f2 | e2 d2- d/c/d/c/ d2- | %144
 d/e/f/g/ a/b/d/c/ d4- | d2 cf- f/B/c/d/ e/f/B/^A/ | d2 cB c4 | z/ F/^G/A/ B/c/F/^E/ A2 z2 | %148
 z2 ^g2 f2 e2 | ^d2 c2- c^B c2- | c/^d/e/f/ ^g/a/c/^B/ e4- | e/e/f/^g/ a/b/^d/c/ d2 z2 | %152
 z2 f2 e2 d2 | c2 B2- B/^A/B/A/ B2- | B/c/d/e/ f/g/B/^A/ d2- d/c/d/c/ | e/d/f/e/ g2- g>f a2- | %156
 a>^g ba g2- g/^e/f- | f/f/^g/a/ b/g/f/^e/ a4- | a4- a/f/g/a/ b/=c'/f/e/ | %159
 f2- f/f/d/B/ g/a/b- ba/g/ | f/g/a- ag/f/ e/f/g- gf/e/ | d2- d/e/f- fe/d/ c/d/e- | %162
 ed/c/ B/c/d- dc/B/ ^A/B/c- | c/F/^G/^A/ B/c/d/f/ e/c/d/f/ g/e/f/^a/ | %164
 b/a/g/f/ e/d/=c/B/ A/F/G/B/ c/A/B/^d/ | e2 d2 c2 B2- | B/^A/B/A/ B2- B/c/d/e/ f/g/B/A/ | %167
 B/d/e/f/ g/a/=c/B/ c/e/f/g/ ^a/b/d/^c/ | d4 c4- | c2 =c/^A/B- B2 ^A2 | !fermata!B8 |] %171
V:2
 F2 B4 A2 | ^G2 c4 BA | G4- GF E2- | E2 D2 C2 F2- | F2 E4 D2- | D2 G4 F2 | E4 F2 z2 | E2 A4 G2 | %8
 F2 B4 A2 | ^G2 c4 B2- | B2 A2 ^G4 | A2 d4 c2 | B2 e4 d2 | c2 f2- fB e2- | ed/c/ dc B2 ^A2 | %15
 B2 c2 d3 e- | edcB ^A4 | F2 B4 A2 | ^G2 c4 BA | G4- GF E2- | E2 D2 C2 F2- | F2 E4 D2- | D2 G4 F2 | %23
 E4 F2 z2 | E2 A4 G2 | F2 B4 A2 | ^G2 c4 B2- | B2 A2 ^G4 | A2 d4 c2 | B2 e4 d2 | c2 f2- fB e2- | %31
 ed/c/ dc B2 ^A2 | B2 c2 d3 e- | edcB ^A4 | z cfe ^d4 | e2 ^d2 eBe=d | c4 d2 c2 | dABc d4- | %38
 dcfe dc B2- | B2 A2- AA^GF | ^EF ^G4 F=E | D4 C4 | B,4- B,^EF^G | C F2 ^E F2 =c2- | c2 BA G^def | %45
 B e2 ^d e2 z2 | c2 de A_BAG | F2 E2 D2 C2 | B,2 A,2 B,2 D2- | DGFE D2 G2- | GBAG F2 B2- | %51
 BdcB cedc | d2 B2- BdcB | e2 c2- cedc | f2 d2- de f2- | f2 e4 d2- | d2 c4 BA | G4- G^ABc | %58
 F B2 ^A B E2 ^D | G4- G G2 F | B4- B B2 ^A | d4- d=c B2- | B2 ^A2 =A G2 F- | FE C2 ^D4 | %64
 z cfe ^d4 | e2 ^d2 eBe=d | c4 d2 c2 | dABc d4- | dcfe dc B2- | B2 A2- AA^GF | ^EF ^G4 F=E | %71
 D4 C4 | B,4- B,^EF^G | C F2 ^E F2 =c2- | c2 BA G^def | B e2 ^d e2 z2 | c2 de A_BAG | F2 E2 D2 C2 | %78
 B,2 A,2 B,2 D2- | DGFE D2 G2- | GBAG F2 B2- | BdcB cedc | d2 B2- BdcB | e2 c2- cedc | %84
 f2 d2- de f2- | f2 e4 d2- | d2 c4 BA | G4- G^ABc | F B2 ^A B E2 ^D | G4- G G2 F | B4- B B2 ^A | %91
 d4- d=c B2- | B2 ^A2 =A G2 F- | FE C2 ^D4 | x8 |[M:4/4] z FDB, GFB^A | x8 | x8 | x8 | x8 | x8 | %101
 x8 | x8 | x8 | x8 | x8 | x8 | F4 ^E^D z =d | ^de z2 z e =d/c/d/B/ | c2 BF G4- | GC- C2 F2 ^G2- | %111
 G2 F z z4 | x8 | z FB,[I:staff +1]B,[I:staff -1] z4 | x8 | z FDB, GFB^A | E^D=cB F^Ed^c | %117
 ^BcAF- F/^G/A/=B/ c/d/F/^E/ | A4- A=cB^d | e4- edc^e | f2 z B/A/ G/A/B- BA/G/ | %121
 F/G/A- AG/F/ E/F/G- GF/E/ | D/E/F- FE/D/ =C/D/E- ED/C/ | B,/=C/D- DC/B,/ A,/B,/C- CB,/A,/ | %124
 G,2 z E/^D/ D/E/F/G/ A/G/A/B/ | =c/A/B- B/A/^G/F/ E/=G/F/^A/ B2- | %126
 BB/^A/ z/ =A/G/F/[I:staff +1] =E4 |[I:staff -1] z/ F/^G/^A/ B/c/F/^E/ =A4 | ^GcAF dcf^e | %129
 B^A z B- B/A/B/d/ c2- | cBe^A B4- | B/^A/B/c/ d/e/=A/^G/ A4- | AG F2 z4 | %133
 z/ f/a/g/ f/e/^d/c/ B/=d/c/B/ A/^G/c/A/ | ^G2 z/ =e/d/c/ B/A/G/A/ B2- | B^A z B- B/A/B/d/ c2 | %136
 DBGE =cBe^d | A^G A2- AGcB | e z z F D2 z G | Ad =c2 B2 A2- | AA/^G/ A/=G/F/E/ D/C/B,/C/ D2 | %141
 C2 B,2 A,4 | x8 | x8 | x8 | z/ E/F/G/ A/B/[I:staff +1]E/^D/[I:staff -1] G4- | %146
 GFE^G- G/E/F/G/ A/B/D/C/ | ^D2 ^E^G G/G/F/E/ F/G/A/c/ | B/^G/A/c/ B/d/c/B/ c/d/e/d/ c/B/^A/G/ | %149
 F/A/^G/^B/ c/^d/e/f/ e/d/ z/ A/ G/=B/A/G/ |[I:staff +1] F4[I:staff -1] ^G4- | %151
 G/[I:staff +1]C/^D/E/ F/^G/A/B/ A/[I:staff -1]F/G/A/ B/c/^d/e/ | %152
 f/^d/e/^g/ f/c/B/A/ B/c/=d/c/ B/A/^G/F/ | E/G/F/E/ D/C/D/B,/ C2 z/ =A/G/F/ | %154
 E2 z c- c/c/B/^A/ B2 | cd z/ e/d/c/ B/^A/B z/ f/e/^d/ | c/^B/c z/ ^gf/- f/f/^e/g/ c>d | B4 c4- | %158
 c/[I:staff +1]F/G/A/[I:staff -1] B/=c/[I:staff +1]E/^D/ E4- | %159
 E/E/D/C/ D[I:staff -1] z z e/d/ c/d/e- | ed/c/ B/c/d dc/B/ ^A/B/c- | c2 BA G/A/B- BA/G/ | %162
 F/G/A- AG/F/ E/F/G- GF/E/ | D2 B2- B^Adc | f z z2 z2 z B- | B/c/B/A/ ^G2 z/ A/F- F/E/D/E/ | %166
 C2 z/ F/E/D/ C4 |[I:staff +1] B,2[I:staff -1] z[I:staff +1] F E2[I:staff -1] z2 | z FDB, GFB^A | %169
 E^D z ^G F^E F>=E | ^D8 |] %171
V:3
 B,,C,D,E, F,^G,A,B, | CB,^A,F, B,=A,G,F, | E,C,D,E, F,F,,^G,,^A,, | B,,C,D,E, F,^G,A,F, | %4
 B,B,,C,A,, D,C,B,,A,, | G,,F,E,D, C,A,B,F, | G,E,A,A,, D,E,F,G, | A,,B,,C,D, E,F,G,A, | %8
 B,,C,D,E, F,^G,A,B, | CB,CA, DCDB, | =F,CDA, B,^G,CC, | F,E,F,^G, A,B,CD | E,F,G,A, B,CDE | %13
 F,E,F,D, G,F,G,E, | ^A,F,B,E, F,E,F,F,, | %15
 B,,2 A,,2 A,,/4G,,/4A,,/4G,,/4A,,/4G,,/4A,,/4G,,/4 A,,/4G,,/4A,,/4G,,/4A,,/4G,,/4A,,/4G,,/4 | %16
 F,,8 | B,,C,D,E, F,^G,A,B, | CB,^A,F, B,=A,G,F, | E,C,D,E, F,F,,^G,,^A,, | B,,C,D,E, F,^G,A,F, | %21
 B,B,,C,A,, D,C,B,,A,, | G,,F,E,D, C,A,B,F, | G,E,A,A,, D,E,F,G, | A,,B,,C,D, E,F,G,A, | %25
 B,,C,D,E, F,^G,A,B, | CB,CA, DCDB, | =F,CDA, B,^G,CC, | F,E,F,^G, A,B,CD | E,F,G,A, B,CDE | %30
 F,E,F,D, G,F,G,E, | ^A,F,B,E, F,E,F,F,, | %32
 B,,2 A,,2 A,,/4G,,/4A,,/4G,,/4A,,/4G,,/4A,,/4G,,/4 A,,/4G,,/4A,,/4G,,/4A,,/4G,,/4A,,/4G,,/4 | %33
 F,,8 | F,G,A,F, B,A,G,F, | E,G,,A,,B,, E,,F,,G,,E,, | A,,G,,F,,E,, D,,F,,G,,A,, | %37
 D,,E,D,C, B,,A,,^G,,F,, | =F,,F,^G,A, B,CDB, | CF,,^G,,A,, B,,C,D,B,, | C,^D,^E,C, F,^G,A,F, | %41
 B,A,^G,F, ^E,C,F,=E, | D,C,D,B,, C,B,,A,,B,, | C,B,,C,C,, F,,C,^D,E, | F,A,G,F, E,F,G,A, | %45
 B,A,B,B,, E,B,CD | EG,F,E, D,E,F,G, | A,G,A,A,, B,,D,F,F,, | G,,B,, D,2- D,D,C,B,, | %49
 ^A,,F,,^G,,A,, B,,F,E,D, | C,A,,B,,C, D,A,G,F, | E,C,D,E, ^A,,F,^G,^A, | B,B,,C,D, E,F,E,D, | %53
 C,CDE FGFE | DD,E,F, G,F,E,^D, | E,D,C,B,, ^A,,F,B,A, | ^G,F,G,^A, B,B,,C,D, | E,F,G,E, F,E,D,E, | %58
 F,E,F,F,, G,,2 F,,2 | E,,2 D,,2 C,,B,^A,=A, | ^G,=G,F,B, E,EDC | B,=C^CD ^E,F,G,=E, | %62
 F,E,F,F,, B,,4- | B,,8 | F,G,A,F, B,A,G,F, | E,G,,A,,B,, E,,F,,G,,E,, | %66
 A,,G,,F,,E,, D,,F,,G,,A,, | D,,E,D,C, B,,A,,^G,,F,, | =F,,F,^G,A, B,CDB, | %69
 CF,,^G,,A,, B,,C,D,B,, | C,^D,^E,C, F,^G,A,F, | B,A,^G,F, ^E,C,F,=E, | D,C,D,B,, C,B,,A,,B,, | %73
 C,B,,C,C,, F,,C,^D,E, | F,A,G,F, E,F,G,A, | B,A,B,B,, E,B,CD | EG,F,E, D,E,F,G, | %77
 A,G,A,A,, B,,D,F,F,, | G,,B,, D,2- D,D,C,B,, | ^A,,F,,^G,,A,, B,,F,E,D, | C,A,,B,,C, D,A,G,F, | %81
 E,C,D,E, ^A,,F,^G,^A, | B,B,,C,D, E,F,E,D, | C,CDE FGFE | DD,E,F, G,F,E,^D, | %85
 E,D,C,B,, ^A,,F,B,A, | ^G,F,G,^A, B,B,,C,D, | E,F,G,E, F,E,D,E, | F,E,F,F,, G,,2 F,,2 | %89
 E,,2 D,,2 C,,B,^A,=A, | ^G,=G,F,B, E,EDC | B,=C^CD ^E,F,G,=E, | F,E,F,F,, B,,4- | B,,8 | z8 | %95
[M:4/4] z8 | z8 | z8 | z B,A,F, DB,E^D | A,^G,=FE B,^A,G^F | ^EFDB, C4 | %101
 B,/[I:staff -1]F/^G/^A/ B/c/F/=F/ =A4- | AGF^A B4- | B^A[I:staff +1]B z z2[I:staff -1] c2 | %104
 B2 A2 ^G2 F2- | F^E F2- F/^G/A/B/ c/d/F/=F/ | F6 E2- | %107
 E>D[I:staff +1] C/B,/A,/F,/ ^G,/B,/A,/F,/ =CB,/A,/ | B,4 E,2 B,A, | ^G,F,[I:staff -1]FD E4- | %110
 E[I:staff +1]C^A,F, D4 |[I:staff -1] C4[I:staff +1] CB,/A,/ ^G,/A,/B,- | %112
 B,A,/^G,/ F,/G,/A,- A,G,/F,/ ^E,/F,/G, | F,/[I:staff -1]B/c- cB/A/ G/A/B- BA/G/ | %114
 F/G/A- AG/F/ E/F/G GF/E/ | D2[I:staff +1] z2 z4 | %116
 B,/G,/F,/E,/ ^D,>C, =D,/E,/D,/C,/ B,,/A,,/^G,,/F,,/ | %117
 ^G,,/B,,/A,,/G,,/ F,,/A,,/D,/C,/ B,,G,,C,C,, | F,/G,/A,/B,/ =C/D/E,/^D,/ G,4- | %119
 G,/B,,/C,/D,/ E,/F,/B,,/^A,,/ B,,4- | B,,^A,,B,,D, E,G,,=A,,C, | D,F,,G,,B,, C,E,,F,,^A,, | %122
 z B,G,E, z4 | G,B,=CE, F,A,B,^D, | z B,G,E, =CB,E^D | A,^G,=FE B,^A,G^F | =F^FDB, C4 | %127
 B,4 z/ C/^D/^E/ F/^G/C/^B,/ | C/B,/A,/^G,/ F,/G,/A,/C/ B,/G,/A,/C/ D/B,/C/^E/ | %129
[K:treble] F/E/D/C/ B,/C/D/F/ E/C/D/F/ G/E/F/^A/ | B/A/G/F/ E/D/E/C/ D4- | DCB,D[K:bass] =C4- | %132
 CB, z B,- B,/^A,/B,/D/ ^C2 | F,2 z2 z4 | ^B,CA,F, ^G,4 | %135
 F,/E,/D,/C,/ B,,/C,/D,/F,/ E,/C,/D,/F,/ G,/E,/F,/^A,/ | %136
 B,/A,/G,/F,/ E,/F,/G,/B,/ A,/F,/G,/B,/ ^B,/A,/=B,/^D/ | EE,C,A,, F,E,A,^G, | z A,F,D, B,A,DC | %139
 G,F,_ED A,^G,=F=E | ^DECA, B,4- | B, A,2 G,2 F,E,C, | %142
 z/[I:staff -1] g/f/e/ d/=c/B/c/ d/e/d/c/ B/^c/d/B/ | %143
 G/_B/A/G/ =F/E/F/D/ E2[I:staff +1] z/[I:staff -1] =c/=B/A/ | %144
 G/F/[I:staff +1]E/D/ C/B,/A,/G,/ F,/A,/B,/C/[I:staff -1] D/E/[I:staff +1]A,/^G,/ | %145
 A,4 B,^A,/B,/ CE, | B, z z2 z/ C,/^D,/^E,/ F,/^G,/A,/E,/ | F,2 ^G,2 z CA,F, | DCF=F B,^A,G^F | %149
 C=CA^G =G_AE^C | ^D4- D/^G,/^A,/^B,/ C/D/F,/E,/ | F,2 z2 z4 | z8 | z8 | z4 z[K:treble] FDB, | %155
 GFB^A E^D=cB | F^Edc ^BcAF | ^G4- G/C/^D/=F/ ^F/G/B,/A,/ | B,8 |[K:bass] ^A,F,B,D EGAC | %160
 DFGB, CEF^A, | B,/F,/G,/A,/ B,/=C/E,/^D,/ E,G,A,^C | DF,G,B, CE,F,^A, | B,F,D,B,, G,F,B,^A, | %164
 E,^D, E,4 F,2 | E,2 z/ B,/C/D/ E>E D/C/B,/A,/ | ^G,F,- F,/A,/=G,/F,/ =E,4 | F,2 z A, G,2 z B, | %168
 ^A,/F,/^G,/A,/ B,/C/D/B,/ B,/B,/A,/B,/ C/D/E/C/ | F2 z[I:staff -1] =D C4 | B,8 |] %171
V:4
 x8 | x8 | x8 | x8 | x8 | x8 | x8 | x8 | x8 | x8 | x8 | x8 | x8 | x8 | x8 | x8 | x8 | x8 | x8 | %19
 x8 | x8 | x8 | x8 | x8 | x8 | x8 | x8 | x8 | x8 | x8 | x8 | x8 | x8 | x8 | x8 | x8 | x8 | x8 | %38
 x8 | x8 | x8 | x8 | x8 | x8 | x8 | x8 | x8 | x8 | x8 | x8 | x8 | x8 | x8 | x8 | x8 | x8 | x8 | %57
 x8 | x8 | x8 | x8 | x8 | x8 | z2 z ^A B4 | x8 | x8 | x8 | x8 | x8 | x8 | x8 | x8 | x8 | x8 | x8 | %75
 x8 | x8 | x8 | x8 | x8 | x8 | x8 | x8 | x8 | x8 | x8 | x8 | x8 | x8 | x8 | x8 | x8 | x8 | %93
 z2 z ^A B4 | x8 |[M:4/4] x8 | x8 | x8 | x8 | x8 | x8 | x8 | x8 | x8 | x8 | x8 | x8 | x8 | x8 | %109
 x8 | x8 | x8 | x8 | x8 | x8 | x8 | x8 | x8 | x8 | x8 | x8 | x8 | x8 | x8 | x8 | x8 | x8 | x8 | %128
 x8 | x8 | x8 | x8 | x8 | x8 | x8 | x8 | x8 | x8 | x8 | x8 | x8 | x8 | x8 | x8 | x8 | x8 | x8 | %147
 x8 | x8 | x8 | x8 | x8 | x8 | x8 | x8 | x8 | x8 | x8 | x8 | x8 | x8 | x8 | x8 | x8 | x8 | x8 | %166
 x8 | x8 | x8 | x8 | x8 |] %171
V:5
 x8 | x8 | x8 | x8 | x8 | x8 | x8 | x8 | x8 | x8 | x8 | x8 | x8 | x8 | x8 | x8 | x8 | x8 | x8 | %19
 x8 | x8 | x8 | x8 | x8 | x8 | x8 | x8 | x8 | x8 | x8 | x8 | x8 | x8 | x8 | x8 | x8 | x8 | x8 | %38
 x8 | x8 | x8 | x8 | x8 | x8 | x8 | x8 | x8 | x8 | x8 | x8 | x8 | x8 | x8 | x8 | x8 | x8 | x8 | %57
 x8 | x8 | x8 | x8 | x8 | x8 | x8 | x8 | x8 | x8 | x8 | x8 | x8 | x8 | x8 | x8 | x8 | x8 | x8 | %76
 x8 | x8 | x8 | x8 | x8 | x8 | x8 | x8 | x8 | x8 | x8 | x8 | x8 | x8 | x8 | x8 | x8 | x8 | x8 | %95
[M:4/4] x8 | x8 | x8 | x8 | x8 | x8 | x8 | x8 | z4 G,F,B,^A, | E,^D,=CB, F,^E,D^C | ^B,CA,F, ^G,4 | %106
 F,/F,/G,/A,/ B,/=C/E,/^D,/ E,/F,/G,/E,/ ^A,/B,/=D,/C,/ | D,B,, F,4 F,2 | E,2 D,2 C,2 B,,2- | %109
 B,,^A,, B,,2- B,,/C,/D,/E,/ F,/=G,/B,,/A,,/ | D,4- D,/^A,,/B,,/C,/ D,/E,/F,,/^E,,/ | %111
 E,,2 F,A, B,D,E,^G, | A,C,D,F, ^G,B,,C,^E, | F,A,,B,,D, E,G,,A,,C, | D,F,,G,,B,, C,E,,F,,^A,, | %115
 B,,2- B,,/C,/D,/F,/ E,/C,/D,/F,/ G,/E,/F,/^A,/ | x8 | x8 | x8 | x8 | x8 | x8 | B,,D,E,G, A,=CDF, | %123
 x8 | E,2 z2 z4 | x8 | x8 | x8 | x8 |[K:treble] x8 | x8 | x4[K:bass] x4 | z E,D,C, G,F,B,^A, | %133
 E,^D,=CB, F,^E,D^C | x8 | x8 | x8 | x8 | D,C, D,6- | D,2 z2 z4 | x8 | z4 z D,C,A,, | %142
 F,D,G,F, =C,B,,A,^G, | D,C,_B,A, ^G,A,F,D, | E,4 D,2 z B,, | A,,2 z F, E,2 z C, | %146
 B,,/F,,/^G,,/A,,/ B,,/C,/F,,/^E,,/ A,,4- | A,,2 ^G,,2 F,, z z2 | x8 | x8 | x8 | z4 z B,,^G,,E,, | %152
 C,B,,E,^D, A,,^G,,=F,E, | B,,^A,,G,F, E,F,D,B,, | C,4 z[K:treble] z z2 | x8 | x8 | x8 | x8 | %159
[K:bass] x8 | x8 | x8 | x8 | x8 | z B,,G,,E,, =C,B,,E,^D, | A,,^G,,=F,E, B,,^A,,G,^F, | %166
 ^E,F,D,B,, C,4 | D,2 z ^D, E,2 z ^E, | F,8- | %169
 F,/^A,,/B,,/C,/ ^D,/^E,/F,,/^E,,/ z/ B,,/C,/=D,/ =E,/C,/F,- | F,8 |] %171
V:6
 x8 | x8 | x8 | x8 | x8 | x8 | x8 | x8 | x8 | x8 | x8 | x8 | x8 | x8 | x8 | x8 | x8 | x8 | x8 | %19
 x8 | x8 | x8 | x8 | x8 | x8 | x8 | x8 | x8 | x8 | x8 | x8 | x8 | x8 | x8 | x8 | x8 | x8 | x8 | %38
 x8 | x8 | x8 | x8 | x8 | x8 | x8 | x8 | x8 | x8 | x8 | x8 | x8 | x8 | x8 | x8 | x8 | x8 | x8 | %57
 x8 | x8 | x8 | x8 | x8 | x8 | x8 | x8 | x8 | x8 | x8 | x8 | x8 | x8 | x8 | x8 | x8 | x8 | x8 | %76
 x8 | x8 | x8 | x8 | x8 | x8 | x8 | x8 | x8 | x8 | x8 | x8 | x8 | x8 | x8 | x8 | x8 | x8 | x8 | %95
[M:4/4] x8 | x8 | x8 | x8 | x8 | x8 | x8 | x8 | x8 | x8 | x8 | x8 | x8 | x8 | x8 | x8 | x8 | x8 | %113
 x8 | x8 | x8 | x8 | x8 | x8 | x8 | x8 | x8 | x8 | x8 | x8 | x8 | x8 | x8 | x8 |[K:treble] x8 | %130
 x8 | x4[K:bass] x4 | x8 | x8 | x8 | x8 | x8 | x8 | x8 | x8 | x8 | x8 | x8 | x8 | x8 | x8 | x8 | %147
 x8 | x8 | x8 | x8 | x8 | x8 | x8 | x5[K:treble] x3 | x8 | x8 | x8 | x8 |[K:bass] x8 | x8 | x8 | %162
 x8 | x8 | x8 | x8 | x8 | x8 | x8 | z4 F,,4 | !fermata!B,,8 |] %171

